!!!COM: Palestrina, Giovanni Perluigi da
!!!OPR: Missa De Beata Marie Virginis (III)
!!!OMD: Credo
!!!OTL: Et ex Patre
**kern	**kern	**kern	**kern	**kern
*Ibass	*Itenor	*Itenor	*Icalto	*Icant
!Bassus	!Tenor 2	!Tenor 1	!Altus	!Cantus
*clefF4	*clefGv2	*clefGv2	*clefG2	*clefG2
*k[]	*k[]	*k[]	*k[]	*k[]
*G:mix	*G:mix	*G:mix	*G:mix	*G:mix
*M4/2	*M4/2	*M4/2	*M4/2	*M4/2
=22	=22	=22	=22	=22
0r	1r	0r	1.g	0r
.	[1d	.	.	.
.	.	.	2f	.
=23	=23	=23	=23	=23
0r	2d]	0r	1e	0r
.	2c	.	.	.
.	2B	.	2d	.
.	2A	.	[2f	.
=24	=24	=24	=24	=24
0r	1c	1.g	4f]	0r
.	.	.	4e	.
.	.	.	2e	.
.	2.d	.	2d	.
.	.	2f	[2a	.
.	4A	.	.	.
=25	=25	=25	=25	=25
0r	2c	2e	2a]	0r
.	2B	2d	2g	.
.	1A	1f	[1cc	.
=26	=26	=26	=26	=26
0r	1G	2.g	2cc]	1.dd
.	.	.	2b	.
.	.	4d	.	.
.	1r	2f	2a	.
.	.	2e	[2g	2cc
=27	=27	=27	=27	=27
0r	0r	2.d	4g]	2b
.	.	.	4f	.
.	.	.	4f	2a
.	.	8c	8e	.
.	.	8B	8d	.
.	.	1A	1e	1cc
=28	=28	=28	=28	=28
1.G	1r	2.B	1d	2.dd
.	.	4c	.	4cc
.	2r	1d	1r	2b
2F	2d	.	.	2a
=29	=29	=29	=29	=29
2E	2G	0r	1r	2.b
2D	2.d	.	.	.
.	.	.	.	8a
.	.	.	.	8g
1F	.	.	2r	1a
.	4d	.	.	.
.	2c	.	2a	.
=30	=30	=30	=30	=30
1G	2.B	0r	2d	2r
.	.	.	2.g	2dd
.	8A	.	.	.
.	8B	.	.	.
1r	2c	.	.	2g
.	.	.	4g	.
.	2d	.	2f	[2dd
=31	=31	=31	=31	=31
1r	1A	1a	2e	4dd]
.	.	.	.	4dd
.	.	.	2f	2cc
1G	1B	2d	2g	2b
.	.	[2g	2d	2b
=32	=32	=32	=32	=32
2C	2c	4g]	2e	1g
.	.	4f	.	.
2.G	4B	1e	1g	.
.	4A	.	.	.
.	2B	.	.	2r
4G	.	.	.	.
2F	2A	[2d	2a	2dd
=33	=33	=33	=33	=33
2E	1G	2d]	2b	2g
2E	.	2c#	4a	2.gg
.	.	.	4g	.
1D	2r	1d	2b	.
.	.	.	.	4gg
.	2d	.	4a	2ff
.	.	.	4b	.
=34	=34	=34	=34	=34
1C	2G	2r	2.cc	4ee
.	.	.	.	4cc
.	2.g	2e	.	2.ee
.	.	.	4b	.
2D	.	2A	1a	.
.	4f	.	.	4dd
2D	2f	[2a	.	2dd
=35	=35	=35	=35	=35
1.A	2e	4a]	2r	2cc#
.	.	4g	.	.
.	2d	2f	1a	1dd
.	1e	2e	.	.
2A	.	2A	2a	2cc#
=36	=36	=36	=36	=36
[0D	[0d	[0A	[0f#	[0dd
=37	=37	=37	=37	=37
0D]	0d]	0A]	0f#]	0dd]
*-	*-	*-	*-	*-
!!!CDT: 1525/^1526/-1594/2/2
!!!OCY: Italia
!!!AGN: Mass (Paraphrase)
!!!AST: renaissance, vocal
!!!ASW: Gregorian Mass
!!!PWK: Masses, Book Mantuan I
!!!RNB: Cadence finals: D
!!!YOR: Le Opere Complete, v. 18, p. 162
!!!YOO: Rome, Italy: Fratelli Scalera
!!!END: 1992//
!!!EED: John Miller
!!!YEC: Copyright 2000, John Miller
!!!YEN: United States of America
!!!YEM: Rights to all derivative electronic formats reserved.
!!!YEM: Refer to licensing agreement for further details.
!!!YEM: This file must be accompanied by the licensing agreement.
!!!YEM: A copy of the licensing agreement may be found at http://www.music-cog.ohio-state.edu/HumdrumDatabases/Palestrina/license.txt
!!!EMD: converted to Humdrum by Bret Aarden
